lib/radiotmp/nrk-hardware-tablet-expressive.svg

<svg width="24" height="24" viewBox="0 0 24 24" fill="none" xmlns="http://www.w3.org/2000/svg">
<path fill-rule="evenodd" clip-rule="evenodd" d="M2.99951 4C2.99951 2.34315 4.34266 1 5.99951 1H18.0003C19.6571 1 21.0003 2.34315 21.0003 4V20C21.0003 21.6569 19.6571 23 18.0003 23H5.99951C4.34266 23 2.99951 21.6569 2.99951 20V4ZM4.99951 20C4.99951 20.5523 5.44723 21 5.99951 21H18.0003C18.5526 21 19.0003 20.5523 19.0003 20V4C19.0003 3.44772 18.5526 3 18.0003 3H5.99951C5.44723 3 4.99951 3.44772 4.99951 4V20ZM13.4999 18C13.4999 18.8284 12.8283 19.5 11.9999 19.5C11.1715 19.5 10.4999 18.8284 10.4999 18C10.4999 17.1716 11.1715 16.5 11.9999 16.5C12.8283 16.5 13.4999 17.1716 13.4999 18Z" fill="black"/>
</svg>

<svg xmlns="http://www.w3.org/2000/svg" viewBox="0 0 24 24"><path fill="#000" fill-rule="evenodd" d="M3 4a3 3 0 0 1 3-3h12a3 3 0 0 1 3 3v16a3 3 0 0 1-3 3H6a3 3 0 0 1-3-3V4Zm2 16a1 1 0 0 0 1 1h12a1 1 0 0 0 1-1V4a1 1 0 0 0-1-1H6a1 1 0 0 0-1 1v16Zm8.5-2a1.5 1.5 0 1 1-3 0 1.5 1.5 0 0 1 3 0Z" clip-rule="evenodd"/></svg>
